MODULE Module1
    CONST robtarget Target_10:=[[-124.464,-336.61,-331.863999999],[1,0,0,0],[0,0,-1,1],[9E+09,9E+09,9E+09,9E+09,9E+09,9E+09]];
    CONST robtarget Target_20:=[[0,-280,-140],[1,0,0,0],[0,0,-1,1],[9E+09,9E+09,9E+09,9E+09,9E+09,9E+09]];
    CONST robtarget Target_30:=[[17.481,-155.618,-40],[1,0,0,0],[0,0,-1,1],[9E+09,9E+09,9E+09,9E+09,9E+09,9E+09]];
    CONST robtarget Target_40:=[[17.481,-155.618,0],[1,0,0,0],[0,0,-1,1],[9E+09,9E+09,9E+09,9E+09,9E+09,9E+09]];
    CONST robtarget Target_50:=[[23.895,-143.776,0],[1,0,0,0],[0,0,-1,1],[9E+09,9E+09,9E+09,9E+09,9E+09,9E+09]];
    CONST robtarget Target_60:=[[36.543,-139.733,0],[1,0,0,0],[0,0,-1,1],[9E+09,9E+09,9E+09,9E+09,9E+09,9E+09]];
    CONST robtarget Target_70:=[[30.427,-151.752,0],[1,0,0,0],[0,0,-1,1],[9E+09,9E+09,9E+09,9E+09,9E+09,9E+09]];
    CONST robtarget Target_80:=[[17.481,-155.618,0],[1,0,0,0],[0,0,-1,1],[9E+09,9E+09,9E+09,9E+09,9E+09,9E+09]];
    CONST robtarget Target_90:=[[17.481,-155.618,-40],[1,0,0,0],[0,0,-1,1],[9E+09,9E+09,9E+09,9E+09,9E+09,9E+09]];
    CONST robtarget Target_100:=[[38.889,-141.74,-40],[1,0,0,0],[0,0,-1,1],[9E+09,9E+09,9E+09,9E+09,9E+09,9E+09]];
    CONST robtarget Target_110:=[[38.889,-141.74,0],[1,0,0,0],[0,0,-1,1],[9E+09,9E+09,9E+09,9E+09,9E+09,9E+09]];
    CONST robtarget Target_120:=[[35.84,-128.691,0],[1,0,0,0],[0,0,-1,1],[9E+09,9E+09,9E+09,9E+09,9E+09,9E+09]];
    CONST robtarget Target_130:=[[36.8,-121.843,0],[1,0,0,0],[0,0,-1,1],[9E+09,9E+09,9E+09,9E+09,9E+09,9E+09]];
    CONST robtarget Target_140:=[[40.071,-115.87,0],[1,0,0,0],[0,0,-1,1],[9E+09,9E+09,9E+09,9E+09,9E+09,9E+09]];
    CONST robtarget Target_150:=[[45.255,-110.815,0],[1,0,0,0],[0,0,-1,1],[9E+09,9E+09,9E+09,9E+09,9E+09,9E+09]];
    CONST robtarget Target_160:=[[50.803,-107.974,0],[1,0,0,0],[0,0,-1,1],[9E+09,9E+09,9E+09,9E+09,9E+09,9E+09]];
    CONST robtarget Target_170:=[[57.408,-106.693,0],[1,0,0,0],[0,0,-1,1],[9E+09,9E+09,9E+09,9E+09,9E+09,9E+09]];
    CONST robtarget Target_180:=[[71.414,-108.522,0],[1,0,0,0],[0,0,-1,1],[9E+09,9E+09,9E+09,9E+09,9E+09,9E+09]];
    CONST robtarget Target_190:=[[86.885,-115.578,0],[1,0,0,0],[0,0,-1,1],[9E+09,9E+09,9E+09,9E+09,9E+09,9E+09]];
    CONST robtarget Target_200:=[[92.327,-120.216,0],[1,0,0,0],[0,0,-1,1],[9E+09,9E+09,9E+09,9E+09,9E+09,9E+09]];
    CONST robtarget Target_210:=[[95.623,-125.63,0],[1,0,0,0],[0,0,-1,1],[9E+09,9E+09,9E+09,9E+09,9E+09,9E+09]];
    CONST robtarget Target_220:=[[96.14,-128.993,0],[1,0,0,0],[0,0,-1,1],[9E+09,9E+09,9E+09,9E+09,9E+09,9E+09]];
    CONST robtarget Target_230:=[[95.55,-132.184,0],[1,0,0,0],[0,0,-1,1],[9E+09,9E+09,9E+09,9E+09,9E+09,9E+09]];
    CONST robtarget Target_240:=[[93.292,-137.977,0],[1,0,0,0],[0,0,-1,1],[9E+09,9E+09,9E+09,9E+09,9E+09,9E+09]];
    CONST robtarget Target_250:=[[92.611,-144.705,0],[1,0,0,0],[0,0,-1,1],[9E+09,9E+09,9E+09,9E+09,9E+09,9E+09]];
    CONST robtarget Target_260:=[[96.144,-156.668,0],[1,0,0,0],[0,0,-1,1],[9E+09,9E+09,9E+09,9E+09,9E+09,9E+09]];
    CONST robtarget Target_270:=[[95.482,-159.529,0],[1,0,0,0],[0,0,-1,1],[9E+09,9E+09,9E+09,9E+09,9E+09,9E+09]];
    CONST robtarget Target_280:=[[93.75,-162.264,0],[1,0,0,0],[0,0,-1,1],[9E+09,9E+09,9E+09,9E+09,9E+09,9E+09]];
    CONST robtarget Target_290:=[[89.296,-166.268,0],[1,0,0,0],[0,0,-1,1],[9E+09,9E+09,9E+09,9E+09,9E+09,9E+09]];
    CONST robtarget Target_300:=[[75.611,-174.586,0],[1,0,0,0],[0,0,-1,1],[9E+09,9E+09,9E+09,9E+09,9E+09,9E+09]];
    CONST robtarget Target_310:=[[71.278,-168.63,0],[1,0,0,0],[0,0,-1,1],[9E+09,9E+09,9E+09,9E+09,9E+09,9E+09]];
    CONST robtarget Target_320:=[[64.181,-164.639,0],[1,0,0,0],[0,0,-1,1],[9E+09,9E+09,9E+09,9E+09,9E+09,9E+09]];
    CONST robtarget Target_330:=[[56.007,-164.036,0],[1,0,0,0],[0,0,-1,1],[9E+09,9E+09,9E+09,9E+09,9E+09,9E+09]];
    CONST robtarget Target_340:=[[49.102,-166.615,0],[1,0,0,0],[0,0,-1,1],[9E+09,9E+09,9E+09,9E+09,9E+09,9E+09]];
    CONST robtarget Target_350:=[[45.78,-170.049,0],[1,0,0,0],[0,0,-1,1],[9E+09,9E+09,9E+09,9E+09,9E+09,9E+09]];
    CONST robtarget Target_360:=[[44.153,-172.252,0],[1,0,0,0],[0,0,-1,1],[9E+09,9E+09,9E+09,9E+09,9E+09,9E+09]];
    CONST robtarget Target_370:=[[39.001,-167.661,0],[1,0,0,0],[0,0,-1,1],[9E+09,9E+09,9E+09,9E+09,9E+09,9E+09]];
    CONST robtarget Target_380:=[[36.149,-161.057,0],[1,0,0,0],[0,0,-1,1],[9E+09,9E+09,9E+09,9E+09,9E+09,9E+09]];
    CONST robtarget Target_390:=[[35.977,-154.566,0],[1,0,0,0],[0,0,-1,1],[9E+09,9E+09,9E+09,9E+09,9E+09,9E+09]];
    CONST robtarget Target_400:=[[37.908,-148.093,0],[1,0,0,0],[0,0,-1,1],[9E+09,9E+09,9E+09,9E+09,9E+09,9E+09]];
    CONST robtarget Target_410:=[[38.886,-141.71,0],[1,0,0,0],[0,0,-1,1],[9E+09,9E+09,9E+09,9E+09,9E+09,9E+09]];
    CONST robtarget Target_420:=[[38.886,-141.71,-40],[1,0,0,0],[0,0,-1,1],[9E+09,9E+09,9E+09,9E+09,9E+09,9E+09]];
    CONST robtarget Target_430:=[[116.469465038,-96.26119861,-37.443755954],[0.977761385,0.055430504,0.010888157,-0.201969257],[0,0,-1,1],[9E+09,9E+09,9E+09,9E+09,9E+09,9E+09]];
    CONST robtarget Target_440:=[[115.421,-99.817,0],[1,0,0,0],[0,0,-1,1],[9E+09,9E+09,9E+09,9E+09,9E+09,9E+09]];
    CONST robtarget Target_450:=[[145.421,-89.703,-0.001],[1,0,0,0],[0,0,-1,1],[9E+09,9E+09,9E+09,9E+09,9E+09,9E+09]];
    CONST robtarget Target_460:=[[145.421,-93.739,-0.001],[1,0,0,0],[0,0,-1,1],[9E+09,9E+09,9E+09,9E+09,9E+09,9E+09]];
    CONST robtarget Target_470:=[[137.034,-96.462,-0.001],[1,0,0,0],[0,0,-1,1],[9E+09,9E+09,9E+09,9E+09,9E+09,9E+09]];
    CONST robtarget Target_480:=[[137.034,-107.912,-0.001],[1,0,0,0],[0,0,-1,1],[9E+09,9E+09,9E+09,9E+09,9E+09,9E+09]];
    CONST robtarget Target_490:=[[145.421,-110.635,-0.001],[1,0,0,0],[0,0,-1,1],[9E+09,9E+09,9E+09,9E+09,9E+09,9E+09]];
    CONST robtarget Target_500:=[[145.421,-114.841,-0.001],[1,0,0,0],[0,0,-1,1],[9E+09,9E+09,9E+09,9E+09,9E+09,9E+09]];
    CONST robtarget Target_510:=[[115.421,-104.727,0],[1,0,0,0],[0,0,-1,1],[9E+09,9E+09,9E+09,9E+09,9E+09,9E+09]];
    CONST robtarget Target_520:=[[115.421,-99.817,0],[1,0,0,0],[0,0,-1,1],[9E+09,9E+09,9E+09,9E+09,9E+09,9E+09]];
    CONST robtarget Target_530:=[[115.421,-99.817,-40],[1,0,0,0],[0,0,-1,1],[9E+09,9E+09,9E+09,9E+09,9E+09,9E+09]];
    CONST robtarget Target_540:=[[133.63,-97.556,-40],[1,0,0,0],[0,0,-1,1],[9E+09,9E+09,9E+09,9E+09,9E+09,9E+09]];
    CONST robtarget Target_550:=[[133.63,-97.556,-0.001],[1,0,0,0],[0,0,-1,1],[9E+09,9E+09,9E+09,9E+09,9E+09,9E+09]];
    CONST robtarget Target_560:=[[133.63,-106.818,-0.001],[1,0,0,0],[0,0,-1,1],[9E+09,9E+09,9E+09,9E+09,9E+09,9E+09]];
    CONST robtarget Target_570:=[[119.506,-102.175,-0.001],[1,0,0,0],[0,0,-1,1],[9E+09,9E+09,9E+09,9E+09,9E+09,9E+09]];
    CONST robtarget Target_580:=[[133.63,-97.556,-0.001],[1,0,0,0],[0,0,-1,1],[9E+09,9E+09,9E+09,9E+09,9E+09,9E+09]];
    CONST robtarget Target_590:=[[133.63,-97.556,-40],[1,0,0,0],[0,0,-1,1],[9E+09,9E+09,9E+09,9E+09,9E+09,9E+09]];
    CONST robtarget Target_600:=[[122.909,-117.394,-40],[1,0,0,0],[0,0,-1,1],[9E+09,9E+09,9E+09,9E+09,9E+09,9E+09]];
    CONST robtarget Target_610:=[[122.909,-117.394,-0.001],[1,0,0,0],[0,0,-1,1],[9E+09,9E+09,9E+09,9E+09,9E+09,9E+09]];
    CONST robtarget Target_620:=[[153.711,-117.394,-0.001],[1,0,0,0],[0,0,-1,1],[9E+09,9E+09,9E+09,9E+09,9E+09,9E+09]];
    CONST robtarget Target_630:=[[153.711,-121.186,-0.001],[1,0,0,0],[0,0,-1,1],[9E+09,9E+09,9E+09,9E+09,9E+09,9E+09]];
    CONST robtarget Target_640:=[[144.279,-121.186,-0.001],[1,0,0,0],[0,0,-1,1],[9E+09,9E+09,9E+09,9E+09,9E+09,9E+09]];
    CONST robtarget Target_650:=[[145.47,-123.812,-0.001],[1,0,0,0],[0,0,-1,1],[9E+09,9E+09,9E+09,9E+09,9E+09,9E+09]];
    CONST robtarget Target_660:=[[145.859,-126.778,-0.001],[1,0,0,0],[0,0,-1,1],[9E+09,9E+09,9E+09,9E+09,9E+09,9E+09]];
    CONST robtarget Target_670:=[[142.528,-133.573,-0.001],[1,0,0,0],[0,0,-1,1],[9E+09,9E+09,9E+09,9E+09,9E+09,9E+09]];
    CONST robtarget Target_680:=[[133.557,-136.259,-0.001],[1,0,0,0],[0,0,-1,1],[9E+09,9E+09,9E+09,9E+09,9E+09,9E+09]];
    CONST robtarget Target_690:=[[125.34,-134.095,-0.001],[1,0,0,0],[0,0,-1,1],[9E+09,9E+09,9E+09,9E+09,9E+09,9E+09]];
    CONST robtarget Target_700:=[[122.277,-128.066,-0.001],[1,0,0,0],[0,0,-1,1],[9E+09,9E+09,9E+09,9E+09,9E+09,9E+09]];
    CONST robtarget Target_710:=[[123.128,-124.322,-0.001],[1,0,0,0],[0,0,-1,1],[9E+09,9E+09,9E+09,9E+09,9E+09,9E+09]];
    CONST robtarget Target_720:=[[125.267,-121.186,-0.001],[1,0,0,0],[0,0,-1,1],[9E+09,9E+09,9E+09,9E+09,9E+09,9E+09]];
    CONST robtarget Target_730:=[[122.909,-121.186,-0.001],[1,0,0,0],[0,0,-1,1],[9E+09,9E+09,9E+09,9E+09,9E+09,9E+09]];
    CONST robtarget Target_740:=[[122.909,-117.394,-0.001],[1,0,0,0],[0,0,-1,1],[9E+09,9E+09,9E+09,9E+09,9E+09,9E+09]];
    CONST robtarget Target_750:=[[122.909,-117.394,-40],[1,0,0,0],[0,0,-1,1],[9E+09,9E+09,9E+09,9E+09,9E+09,9E+09]];
    CONST robtarget Target_760:=[[128.428,-121.186,-40],[1,0,0,0],[0,0,-1,1],[9E+09,9E+09,9E+09,9E+09,9E+09,9E+09]];
    CONST robtarget Target_770:=[[128.428,-121.186,-0.001],[1,0,0,0],[0,0,-1,1],[9E+09,9E+09,9E+09,9E+09,9E+09,9E+09]];
    CONST robtarget Target_780:=[[141.215,-121.186,-0.001],[1,0,0,0],[0,0,-1,1],[9E+09,9E+09,9E+09,9E+09,9E+09,9E+09]];
    CONST robtarget Target_790:=[[142.188,-123.727,-0.001],[1,0,0,0],[0,0,-1,1],[9E+09,9E+09,9E+09,9E+09,9E+09,9E+09]];
    CONST robtarget Target_800:=[[142.455,-126.146,-0.001],[1,0,0,0],[0,0,-1,1],[9E+09,9E+09,9E+09,9E+09,9E+09,9E+09]];
    CONST robtarget Target_810:=[[140.292,-130.716,-0.001],[1,0,0,0],[0,0,-1,1],[9E+09,9E+09,9E+09,9E+09,9E+09,9E+09]];
    CONST robtarget Target_820:=[[133.995,-132.345,-0.001],[1,0,0,0],[0,0,-1,1],[9E+09,9E+09,9E+09,9E+09,9E+09,9E+09]];
    CONST robtarget Target_830:=[[128.002,-131.117,-0.001],[1,0,0,0],[0,0,-1,1],[9E+09,9E+09,9E+09,9E+09,9E+09,9E+09]];
    CONST robtarget Target_840:=[[125.875,-127.142,-0.001],[1,0,0,0],[0,0,-1,1],[9E+09,9E+09,9E+09,9E+09,9E+09,9E+09]];
    CONST robtarget Target_850:=[[126.592,-124.031,-0.001],[1,0,0,0],[0,0,-1,1],[9E+09,9E+09,9E+09,9E+09,9E+09,9E+09]];
    CONST robtarget Target_860:=[[128.428,-121.186,-0.001],[1,0,0,0],[0,0,-1,1],[9E+09,9E+09,9E+09,9E+09,9E+09,9E+09]];
    CONST robtarget Target_870:=[[128.428,-121.186,-40],[1,0,0,0],[0,0,-1,1],[9E+09,9E+09,9E+09,9E+09,9E+09,9E+09]];
    CONST robtarget Target_880:=[[122.909,-140.197,-40],[1,0,0,0],[0,0,-1,1],[9E+09,9E+09,9E+09,9E+09,9E+09,9E+09]];
    CONST robtarget Target_890:=[[122.909,-140.197,-0.001],[1,0,0,0],[0,0,-1,1],[9E+09,9E+09,9E+09,9E+09,9E+09,9E+09]];
    CONST robtarget Target_900:=[[153.711,-140.197,-0.001],[1,0,0,0],[0,0,-1,1],[9E+09,9E+09,9E+09,9E+09,9E+09,9E+09]];
    CONST robtarget Target_910:=[[153.711,-143.99,-0.001],[1,0,0,0],[0,0,-1,1],[9E+09,9E+09,9E+09,9E+09,9E+09,9E+09]];
    CONST robtarget Target_920:=[[144.279,-143.99,-0.001],[1,0,0,0],[0,0,-1,1],[9E+09,9E+09,9E+09,9E+09,9E+09,9E+09]];
    CONST robtarget Target_930:=[[145.47,-146.616,-0.001],[1,0,0,0],[0,0,-1,1],[9E+09,9E+09,9E+09,9E+09,9E+09,9E+09]];
    CONST robtarget Target_940:=[[145.859,-149.582,-0.001],[1,0,0,0],[0,0,-1,1],[9E+09,9E+09,9E+09,9E+09,9E+09,9E+09]];
    CONST robtarget Target_950:=[[142.528,-156.377,-0.001],[1,0,0,0],[0,0,-1,1],[9E+09,9E+09,9E+09,9E+09,9E+09,9E+09]];
    CONST robtarget Target_960:=[[133.557,-159.063,-0.001],[1,0,0,0],[0,0,-1,1],[9E+09,9E+09,9E+09,9E+09,9E+09,9E+09]];
    CONST robtarget Target_970:=[[125.34,-156.899,-0.001],[1,0,0,0],[0,0,-1,1],[9E+09,9E+09,9E+09,9E+09,9E+09,9E+09]];
    CONST robtarget Target_980:=[[122.277,-150.87,-0.001],[1,0,0,0],[0,0,-1,1],[9E+09,9E+09,9E+09,9E+09,9E+09,9E+09]];
    CONST robtarget Target_990:=[[123.128,-147.126,-0.001],[1,0,0,0],[0,0,-1,1],[9E+09,9E+09,9E+09,9E+09,9E+09,9E+09]];
    CONST robtarget Target_1000:=[[125.267,-143.99,-0.001],[1,0,0,0],[0,0,-1,1],[9E+09,9E+09,9E+09,9E+09,9E+09,9E+09]];
    CONST robtarget Target_1010:=[[122.909,-143.99,-0.001],[1,0,0,0],[0,0,-1,1],[9E+09,9E+09,9E+09,9E+09,9E+09,9E+09]];
    CONST robtarget Target_1020:=[[122.909,-140.197,-0.001],[1,0,0,0],[0,0,-1,1],[9E+09,9E+09,9E+09,9E+09,9E+09,9E+09]];
    CONST robtarget Target_1030:=[[122.909,-140.197,-40],[1,0,0,0],[0,0,-1,1],[9E+09,9E+09,9E+09,9E+09,9E+09,9E+09]];
    CONST robtarget Target_1040:=[[128.428,-143.99,-0.001],[1,0,0,0],[0,0,-1,1],[9E+09,9E+09,9E+09,9E+09,9E+09,9E+09]];
    CONST robtarget Target_1050:=[[141.215,-143.99,-0.001],[1,0,0,0],[0,0,-1,1],[9E+09,9E+09,9E+09,9E+09,9E+09,9E+09]];
    CONST robtarget Target_1060:=[[142.188,-146.531,-0.001],[1,0,0,0],[0,0,-1,1],[9E+09,9E+09,9E+09,9E+09,9E+09,9E+09]];
    CONST robtarget Target_1070:=[[142.455,-148.95,-0.001],[1,0,0,0],[0,0,-1,1],[9E+09,9E+09,9E+09,9E+09,9E+09,9E+09]];
    CONST robtarget Target_1080:=[[140.292,-153.52,-0.001],[1,0,0,0],[0,0,-1,1],[9E+09,9E+09,9E+09,9E+09,9E+09,9E+09]];
    CONST robtarget Target_1090:=[[133.995,-155.149,-0.001],[1,0,0,0],[0,0,-1,1],[9E+09,9E+09,9E+09,9E+09,9E+09,9E+09]];
    CONST robtarget Target_1100:=[[128.002,-153.921,-0.001],[1,0,0,0],[0,0,-1,1],[9E+09,9E+09,9E+09,9E+09,9E+09,9E+09]];
    CONST robtarget Target_1110:=[[125.875,-149.946,-0.001],[1,0,0,0],[0,0,-1,1],[9E+09,9E+09,9E+09,9E+09,9E+09,9E+09]];
    CONST robtarget Target_1120:=[[126.592,-146.834,-0.001],[1,0,0,0],[0,0,-1,1],[9E+09,9E+09,9E+09,9E+09,9E+09,9E+09]];
    CONST robtarget Target_1130:=[[128.428,-143.99,-0.001],[1,0,0,0],[0,0,-1,1],[9E+09,9E+09,9E+09,9E+09,9E+09,9E+09]];
    CONST robtarget Target_1140:=[[128.428,-143.99,-40],[1,0,0,0],[0,0,-1,1],[9E+09,9E+09,9E+09,9E+09,9E+09,9E+09]];
    CONST robtarget Target_1150:=[[114.084,-163.074,-40],[1,0,0,0],[0,0,-1,1],[9E+09,9E+09,9E+09,9E+09,9E+09,9E+09]];
    CONST robtarget Target_1160:=[[114.084,-163.074,0],[1,0,0,0],[0,0,-1,1],[9E+09,9E+09,9E+09,9E+09,9E+09,9E+09]];
    CONST robtarget Target_1170:=[[145.421,-163.074,-0.001],[1,0,0,0],[0,0,-1,1],[9E+09,9E+09,9E+09,9E+09,9E+09,9E+09]];
    CONST robtarget Target_1180:=[[145.421,-166.867,-0.001],[1,0,0,0],[0,0,-1,1],[9E+09,9E+09,9E+09,9E+09,9E+09,9E+09]];
    CONST robtarget Target_1190:=[[114.084,-166.867,0],[1,0,0,0],[0,0,-1,1],[9E+09,9E+09,9E+09,9E+09,9E+09,9E+09]];
    CONST robtarget Target_1200:=[[114.084,-163.074,0],[1,0,0,0],[0,0,-1,1],[9E+09,9E+09,9E+09,9E+09,9E+09,9E+09]];
    CONST robtarget Target_1210:=[[114.084,-163.074,-40],[1,0,0,0],[0,0,-1,1],[9E+09,9E+09,9E+09,9E+09,9E+09,9E+09]];
    CONST robtarget Target_1220:=[[134.554,-190.303,-40],[1,0,0,0],[0,0,-1,1],[9E+09,9E+09,9E+09,9E+09,9E+09,9E+09]];
    CONST robtarget Target_1230:=[[134.554,-190.303,-0.001],[1,0,0,0],[0,0,-1,1],[9E+09,9E+09,9E+09,9E+09,9E+09,9E+09]];
    CONST robtarget Target_1240:=[[132.488,-190.303,-0.001],[1,0,0,0],[0,0,-1,1],[9E+09,9E+09,9E+09,9E+09,9E+09,9E+09]];
    CONST robtarget Target_1250:=[[127.929,-189.659,-0.001],[1,0,0,0],[0,0,-1,1],[9E+09,9E+09,9E+09,9E+09,9E+09,9E+09]];
    CONST robtarget Target_1260:=[[124.781,-187.799,-0.001],[1,0,0,0],[0,0,-1,1],[9E+09,9E+09,9E+09,9E+09,9E+09,9E+09]];
    CONST robtarget Target_1270:=[[122.885,-184.991,-0.001],[1,0,0,0],[0,0,-1,1],[9E+09,9E+09,9E+09,9E+09,9E+09,9E+09]];
    CONST robtarget Target_1280:=[[122.277,-181.283,-0.001],[1,0,0,0],[0,0,-1,1],[9E+09,9E+09,9E+09,9E+09,9E+09,9E+09]];
    CONST robtarget Target_1290:=[[125.535,-173.759,-0.001],[1,0,0,0],[0,0,-1,1],[9E+09,9E+09,9E+09,9E+09,9E+09,9E+09]];
    CONST robtarget Target_1300:=[[134.287,-170.878,-0.001],[1,0,0,0],[0,0,-1,1],[9E+09,9E+09,9E+09,9E+09,9E+09,9E+09]];
    CONST robtarget Target_1310:=[[142.905,-173.844,-0.001],[1,0,0,0],[0,0,-1,1],[9E+09,9E+09,9E+09,9E+09,9E+09,9E+09]];
    CONST robtarget Target_1320:=[[145.932,-182.207,-0.001],[1,0,0,0],[0,0,-1,1],[9E+09,9E+09,9E+09,9E+09,9E+09,9E+09]];
    CONST robtarget Target_1330:=[[145.3,-186.462,-0.001],[1,0,0,0],[0,0,-1,1],[9E+09,9E+09,9E+09,9E+09,9E+09,9E+09]];
    CONST robtarget Target_1340:=[[144.036,-189.89,-0.001],[1,0,0,0],[0,0,-1,1],[9E+09,9E+09,9E+09,9E+09,9E+09,9E+09]];
    CONST robtarget Target_1350:=[[139.903,-189.89,-0.001],[1,0,0,0],[0,0,-1,1],[9E+09,9E+09,9E+09,9E+09,9E+09,9E+09]];
    CONST robtarget Target_1360:=[[141.629,-186.778,-0.001],[1,0,0,0],[0,0,-1,1],[9E+09,9E+09,9E+09,9E+09,9E+09,9E+09]];
    CONST robtarget Target_1370:=[[142.625,-182.159,-0.001],[1,0,0,0],[0,0,-1,1],[9E+09,9E+09,9E+09,9E+09,9E+09,9E+09]];
    CONST robtarget Target_1380:=[[140.547,-176.689,-0.001],[1,0,0,0],[0,0,-1,1],[9E+09,9E+09,9E+09,9E+09,9E+09,9E+09]];
    CONST robtarget Target_1390:=[[134.554,-174.719,-0.001],[1,0,0,0],[0,0,-1,1],[9E+09,9E+09,9E+09,9E+09,9E+09,9E+09]];
    CONST robtarget Target_1400:=[[134.554,-190.303,-0.001],[1,0,0,0],[0,0,-1,1],[9E+09,9E+09,9E+09,9E+09,9E+09,9E+09]];
    CONST robtarget Target_1410:=[[134.554,-190.303,-40],[1,0,0,0],[0,0,-1,1],[9E+09,9E+09,9E+09,9E+09,9E+09,9E+09]];
    CONST robtarget Target_1420:=[[131.661,-186.608,-40],[1,0,0,0],[0,0,-1,1],[9E+09,9E+09,9E+09,9E+09,9E+09,9E+09]];
    CONST robtarget Target_1430:=[[131.661,-186.608,-0.001],[1,0,0,0],[0,0,-1,1],[9E+09,9E+09,9E+09,9E+09,9E+09,9E+09]];
    CONST robtarget Target_1440:=[[129.011,-186.243,-0.001],[1,0,0,0],[0,0,-1,1],[9E+09,9E+09,9E+09,9E+09,9E+09,9E+09]];
    CONST robtarget Target_1450:=[[127.139,-185.319,-0.001],[1,0,0,0],[0,0,-1,1],[9E+09,9E+09,9E+09,9E+09,9E+09,9E+09]];
    CONST robtarget Target_1460:=[[125.839,-183.629,-0.001],[1,0,0,0],[0,0,-1,1],[9E+09,9E+09,9E+09,9E+09,9E+09,9E+09]];
    CONST robtarget Target_1470:=[[125.389,-181.065,-0.001],[1,0,0,0],[0,0,-1,1],[9E+09,9E+09,9E+09,9E+09,9E+09,9E+09]];
    CONST robtarget Target_1480:=[[125.839,-178.5,-0.001],[1,0,0,0],[0,0,-1,1],[9E+09,9E+09,9E+09,9E+09,9E+09,9E+09]];
    CONST robtarget Target_1490:=[[127.164,-176.567,-0.001],[1,0,0,0],[0,0,-1,1],[9E+09,9E+09,9E+09,9E+09,9E+09,9E+09]];
    CONST robtarget Target_1500:=[[129.145,-175.279,-0.001],[1,0,0,0],[0,0,-1,1],[9E+09,9E+09,9E+09,9E+09,9E+09,9E+09]];
    CONST robtarget Target_1510:=[[131.661,-174.719,-0.001],[1,0,0,0],[0,0,-1,1],[9E+09,9E+09,9E+09,9E+09,9E+09,9E+09]];
    CONST robtarget Target_1520:=[[131.661,-180.663,-0.001],[1,0,0,0],[0,0,-1,1],[9E+09,9E+09,9E+09,9E+09,9E+09,9E+09]];
    CONST robtarget Target_1530:=[[131.661,-186.608,-0.001],[1,0,0,0],[0,0,-1,1],[9E+09,9E+09,9E+09,9E+09,9E+09,9E+09]];
    CONST robtarget Target_1540:=[[131.661,-186.608,-40],[1,0,0,0],[0,0,-1,1],[9E+09,9E+09,9E+09,9E+09,9E+09,9E+09]];
    CONST robtarget Target_1550:=[[164.815,-131.591,-40],[1,0,0,0],[0,0,-1,1],[9E+09,9E+09,9E+09,9E+09,9E+09,9E+09]];
    CONST robtarget Target_1560:=[[164.815,-131.591,-0.001],[1,0,0,0],[0,0,-1,1],[9E+09,9E+09,9E+09,9E+09,9E+09,9E+09]];
    CONST robtarget Target_1570:=[[194.815,-131.591,-0.001],[1,0,0,0],[0,0,-1,1],[9E+09,9E+09,9E+09,9E+09,9E+09,9E+09]];
    CONST robtarget Target_1580:=[[194.815,-135.894,-0.001],[1,0,0,0],[0,0,-1,1],[9E+09,9E+09,9E+09,9E+09,9E+09,9E+09]];
    CONST robtarget Target_1590:=[[194.815,-140.197,-0.001],[1,0,0,0],[0,0,-1,1],[9E+09,9E+09,9E+09,9E+09,9E+09,9E+09]];
    CONST robtarget Target_1600:=[[194.256,-145.193,-0.001],[1,0,0,0],[0,0,-1,1],[9E+09,9E+09,9E+09,9E+09,9E+09,9E+09]];
    CONST robtarget Target_1610:=[[192.384,-148.828,-0.001],[1,0,0,0],[0,0,-1,1],[9E+09,9E+09,9E+09,9E+09,9E+09,9E+09]];
    CONST robtarget Target_1620:=[[189.552,-151.089,-0.001],[1,0,0,0],[0,0,-1,1],[9E+09,9E+09,9E+09,9E+09,9E+09,9E+09]];
    CONST robtarget Target_1630:=[[185.602,-151.94,-0.001],[1,0,0,0],[0,0,-1,1],[9E+09,9E+09,9E+09,9E+09,9E+09,9E+09]];
    CONST robtarget Target_1640:=[[180.8,-150.469,-0.001],[1,0,0,0],[0,0,-1,1],[9E+09,9E+09,9E+09,9E+09,9E+09,9E+09]];
    CONST robtarget Target_1650:=[[178.138,-146.324,-0.001],[1,0,0,0],[0,0,-1,1],[9E+09,9E+09,9E+09,9E+09,9E+09,9E+09]];
    CONST robtarget Target_1660:=[[175.367,-149.411,-0.001],[1,0,0,0],[0,0,-1,1],[9E+09,9E+09,9E+09,9E+09,9E+09,9E+09]];
    CONST robtarget Target_1670:=[[171.574,-150.53,-0.001],[1,0,0,0],[0,0,-1,1],[9E+09,9E+09,9E+09,9E+09,9E+09,9E+09]];
    CONST robtarget Target_1680:=[[168.28,-149.788,-0.001],[1,0,0,0],[0,0,-1,1],[9E+09,9E+09,9E+09,9E+09,9E+09,9E+09]];
    CONST robtarget Target_1690:=[[166.031,-147.418,-0.001],[1,0,0,0],[0,0,-1,1],[9E+09,9E+09,9E+09,9E+09,9E+09,9E+09]];
    CONST robtarget Target_1700:=[[165.022,-144.355,-0.001],[1,0,0,0],[0,0,-1,1],[9E+09,9E+09,9E+09,9E+09,9E+09,9E+09]];
    CONST robtarget Target_1710:=[[164.815,-131.591,-0.001],[1,0,0,0],[0,0,-1,1],[9E+09,9E+09,9E+09,9E+09,9E+09,9E+09]];
    CONST robtarget Target_1720:=[[164.815,-131.591,-40],[1,0,0,0],[0,0,-1,1],[9E+09,9E+09,9E+09,9E+09,9E+09,9E+09]];
    CONST robtarget Target_1730:=[[168.219,-135.578,-40],[1,0,0,0],[0,0,-1,1],[9E+09,9E+09,9E+09,9E+09,9E+09,9E+09]];
    CONST robtarget Target_1740:=[[168.219,-135.578,-0.001],[1,0,0,0],[0,0,-1,1],[9E+09,9E+09,9E+09,9E+09,9E+09,9E+09]];
    CONST robtarget Target_1750:=[[176.995,-135.578,-0.001],[1,0,0,0],[0,0,-1,1],[9E+09,9E+09,9E+09,9E+09,9E+09,9E+09]];
    CONST robtarget Target_1760:=[[176.995,-137.839,-0.001],[1,0,0,0],[0,0,-1,1],[9E+09,9E+09,9E+09,9E+09,9E+09,9E+09]];
    CONST robtarget Target_1770:=[[176.995,-140.1,-0.001],[1,0,0,0],[0,0,-1,1],[9E+09,9E+09,9E+09,9E+09,9E+09,9E+09]];
    CONST robtarget Target_1780:=[[176.801,-142.86,-0.001],[1,0,0,0],[0,0,-1,1],[9E+09,9E+09,9E+09,9E+09,9E+09,9E+09]];
    CONST robtarget Target_1790:=[[175.999,-144.695,-0.001],[1,0,0,0],[0,0,-1,1],[9E+09,9E+09,9E+09,9E+09,9E+09,9E+09]];
    CONST robtarget Target_1800:=[[174.479,-145.996,-0.001],[1,0,0,0],[0,0,-1,1],[9E+09,9E+09,9E+09,9E+09,9E+09,9E+09]];
    CONST robtarget Target_1810:=[[172.133,-146.373,-0.001],[1,0,0,0],[0,0,-1,1],[9E+09,9E+09,9E+09,9E+09,9E+09,9E+09]];
    CONST robtarget Target_1820:=[[170.261,-146.008,-0.001],[1,0,0,0],[0,0,-1,1],[9E+09,9E+09,9E+09,9E+09,9E+09,9E+09]];
    CONST robtarget Target_1830:=[[168.997,-144.841,-0.001],[1,0,0,0],[0,0,-1,1],[9E+09,9E+09,9E+09,9E+09,9E+09,9E+09]];
    CONST robtarget Target_1840:=[[168.341,-142.689,-0.001],[1,0,0,0],[0,0,-1,1],[9E+09,9E+09,9E+09,9E+09,9E+09,9E+09]];
    CONST robtarget Target_1850:=[[168.219,-135.578,-0.001],[1,0,0,0],[0,0,-1,1],[9E+09,9E+09,9E+09,9E+09,9E+09,9E+09]];
    CONST robtarget Target_1860:=[[168.219,-135.578,-40],[1,0,0,0],[0,0,-1,1],[9E+09,9E+09,9E+09,9E+09,9E+09,9E+09]];
    CONST robtarget Target_1870:=[[180.326,-135.578,-40],[1,0,0,0],[0,0,-1,1],[9E+09,9E+09,9E+09,9E+09,9E+09,9E+09]];
    CONST robtarget Target_1880:=[[180.326,-135.578,-0.001],[1,0,0,0],[0,0,-1,1],[9E+09,9E+09,9E+09,9E+09,9E+09,9E+09]];
    CONST robtarget Target_1890:=[[191.412,-135.578,-0.001],[1,0,0,0],[0,0,-1,1],[9E+09,9E+09,9E+09,9E+09,9E+09,9E+09]];
    CONST robtarget Target_1900:=[[191.412,-137.195,-0.001],[1,0,0,0],[0,0,-1,1],[9E+09,9E+09,9E+09,9E+09,9E+09,9E+09]];
    CONST robtarget Target_1910:=[[191.412,-138.812,-0.001],[1,0,0,0],[0,0,-1,1],[9E+09,9E+09,9E+09,9E+09,9E+09,9E+09]];
    CONST robtarget Target_1920:=[[191.169,-142.945,-0.001],[1,0,0,0],[0,0,-1,1],[9E+09,9E+09,9E+09,9E+09,9E+09,9E+09]];
    CONST robtarget Target_1930:=[[190.148,-145.619,-0.001],[1,0,0,0],[0,0,-1,1],[9E+09,9E+09,9E+09,9E+09,9E+09,9E+09]];
    CONST robtarget Target_1940:=[[188.349,-147.26,-0.001],[1,0,0,0],[0,0,-1,1],[9E+09,9E+09,9E+09,9E+09,9E+09,9E+09]];
    CONST robtarget Target_1950:=[[185.772,-147.783,-0.001],[1,0,0,0],[0,0,-1,1],[9E+09,9E+09,9E+09,9E+09,9E+09,9E+09]];
    CONST robtarget Target_1960:=[[182.976,-147.296,-0.001],[1,0,0,0],[0,0,-1,1],[9E+09,9E+09,9E+09,9E+09,9E+09,9E+09]];
    CONST robtarget Target_1970:=[[181.104,-145.351,-0.001],[1,0,0,0],[0,0,-1,1],[9E+09,9E+09,9E+09,9E+09,9E+09,9E+09]];
    CONST robtarget Target_1980:=[[180.472,-143.285,-0.001],[1,0,0,0],[0,0,-1,1],[9E+09,9E+09,9E+09,9E+09,9E+09,9E+09]];
    CONST robtarget Target_1990:=[[180.326,-135.578,-0.001],[1,0,0,0],[0,0,-1,1],[9E+09,9E+09,9E+09,9E+09,9E+09,9E+09]];
    CONST robtarget Target_2000:=[[180.326,-135.578,-40],[1,0,0,0],[0,0,-1,1],[9E+09,9E+09,9E+09,9E+09,9E+09,9E+09]];
    CONST robtarget Target_2010:=[[-124.403,-336.591,-331.775],[1,0,0,0],[0,0,-1,1],[9E+09,9E+09,9E+09,9E+09,9E+09,9E+09]];
    PERS tooldata EfectoRFinal:=[TRUE,[[109.602,0,163.602],[0.923879533,0,0.382683432,0]],[1,[26.59,0,67.589],[1,0,0,0],0,0,0]];
    TASK PERS wobjdata Workobject_1:=[FALSE,TRUE,"",[[825.252,336.57,279.787],[0.382686619,0,0.923878213,0]],[[0,0,0],[1,0,0,0]]];
    PROC main()
        Path_10;
    ENDPROC
    PROC Path_10()
        MoveJ Target_10,v40,z10,EfectoRFinal\WObj:=Workobject_1;
        MoveJ Target_20,v40,z10,EfectoRFinal\WObj:=Workobject_1;
        MoveJ Target_30,v40,z10,EfectoRFinal\WObj:=Workobject_1;
        MoveJ Target_40,v40,z10,EfectoRFinal\WObj:=Workobject_1;
        MoveJ Target_50,v40,z10,EfectoRFinal\WObj:=Workobject_1;
        MoveJ Target_60,v40,z10,EfectoRFinal\WObj:=Workobject_1;
        MoveJ Target_70,v40,z10,EfectoRFinal\WObj:=Workobject_1;
        MoveJ Target_80,v40,z10,EfectoRFinal\WObj:=Workobject_1;
        MoveJ Target_90,v40,z10,EfectoRFinal\WObj:=Workobject_1;
        MoveJ Target_100,v40,z10,EfectoRFinal\WObj:=Workobject_1;
        MoveJ Target_110,v40,z10,EfectoRFinal\WObj:=Workobject_1;
        MoveJ Target_120,v40,z10,EfectoRFinal\WObj:=Workobject_1;
        MoveJ Target_130,v40,z10,EfectoRFinal\WObj:=Workobject_1;
        MoveJ Target_140,v40,z10,EfectoRFinal\WObj:=Workobject_1;
        MoveJ Target_150,v40,z10,EfectoRFinal\WObj:=Workobject_1;
        MoveJ Target_160,v40,z10,EfectoRFinal\WObj:=Workobject_1;
        MoveJ Target_170,v40,z10,EfectoRFinal\WObj:=Workobject_1;
        MoveJ Target_180,v40,z10,EfectoRFinal\WObj:=Workobject_1;
        MoveJ Target_190,v40,z10,EfectoRFinal\WObj:=Workobject_1;
        MoveJ Target_200,v40,z10,EfectoRFinal\WObj:=Workobject_1;
        MoveJ Target_210,v40,z10,EfectoRFinal\WObj:=Workobject_1;
        MoveJ Target_220,v40,z10,EfectoRFinal\WObj:=Workobject_1;
        MoveJ Target_230,v40,z10,EfectoRFinal\WObj:=Workobject_1;
        MoveJ Target_240,v40,z10,EfectoRFinal\WObj:=Workobject_1;
        MoveJ Target_250,v40,z10,EfectoRFinal\WObj:=Workobject_1;
        MoveJ Target_260,v40,z10,EfectoRFinal\WObj:=Workobject_1;
        MoveJ Target_270,v40,z10,EfectoRFinal\WObj:=Workobject_1;
        MoveJ Target_280,v40,z10,EfectoRFinal\WObj:=Workobject_1;
        MoveJ Target_290,v40,z10,EfectoRFinal\WObj:=Workobject_1;
        MoveJ Target_300,v40,z10,EfectoRFinal\WObj:=Workobject_1;
        MoveJ Target_310,v40,z10,EfectoRFinal\WObj:=Workobject_1;
        MoveJ Target_320,v40,z10,EfectoRFinal\WObj:=Workobject_1;
        MoveJ Target_330,v40,z10,EfectoRFinal\WObj:=Workobject_1;
        MoveJ Target_340,v40,z10,EfectoRFinal\WObj:=Workobject_1;
        MoveJ Target_350,v40,z10,EfectoRFinal\WObj:=Workobject_1;
        MoveJ Target_360,v40,z10,EfectoRFinal\WObj:=Workobject_1;
        MoveJ Target_370,v40,z10,EfectoRFinal\WObj:=Workobject_1;
        MoveJ Target_380,v40,z10,EfectoRFinal\WObj:=Workobject_1;
        MoveJ Target_390,v40,z10,EfectoRFinal\WObj:=Workobject_1;
        MoveJ Target_400,v40,z10,EfectoRFinal\WObj:=Workobject_1;
        MoveJ Target_410,v40,z10,EfectoRFinal\WObj:=Workobject_1;
        MoveJ Target_420,v40,z10,EfectoRFinal\WObj:=Workobject_1;
        MoveJ Target_430,v40,z10,EfectoRFinal\WObj:=Workobject_1;
        MoveJ Target_440,v40,z10,EfectoRFinal\WObj:=Workobject_1;
        MoveJ Target_450,v40,z10,EfectoRFinal\WObj:=Workobject_1;
        MoveJ Target_460,v40,z10,EfectoRFinal\WObj:=Workobject_1;
        MoveJ Target_470,v40,z10,EfectoRFinal\WObj:=Workobject_1;
        MoveJ Target_480,v40,z10,EfectoRFinal\WObj:=Workobject_1;
        MoveJ Target_490,v40,z10,EfectoRFinal\WObj:=Workobject_1;
        MoveJ Target_500,v40,z10,EfectoRFinal\WObj:=Workobject_1;
        MoveJ Target_510,v40,z10,EfectoRFinal\WObj:=Workobject_1;
        MoveJ Target_520,v40,z10,EfectoRFinal\WObj:=Workobject_1;
        MoveJ Target_530,v40,z10,EfectoRFinal\WObj:=Workobject_1;
        MoveJ Target_540,v40,z10,EfectoRFinal\WObj:=Workobject_1;
        MoveJ Target_550,v40,z10,EfectoRFinal\WObj:=Workobject_1;
        MoveJ Target_560,v40,z10,EfectoRFinal\WObj:=Workobject_1;
        MoveJ Target_570,v40,z10,EfectoRFinal\WObj:=Workobject_1;
        MoveJ Target_580,v40,z10,EfectoRFinal\WObj:=Workobject_1;
        MoveJ Target_590,v40,z10,EfectoRFinal\WObj:=Workobject_1;
        MoveJ Target_600,v40,z10,EfectoRFinal\WObj:=Workobject_1;
        MoveJ Target_610,v40,z10,EfectoRFinal\WObj:=Workobject_1;
        MoveJ Target_620,v40,z10,EfectoRFinal\WObj:=Workobject_1;
        MoveJ Target_630,v40,z10,EfectoRFinal\WObj:=Workobject_1;
        MoveJ Target_640,v40,z10,EfectoRFinal\WObj:=Workobject_1;
        MoveJ Target_650,v40,z10,EfectoRFinal\WObj:=Workobject_1;
        MoveJ Target_660,v40,z10,EfectoRFinal\WObj:=Workobject_1;
        MoveJ Target_670,v40,z10,EfectoRFinal\WObj:=Workobject_1;
        MoveJ Target_680,v40,z10,EfectoRFinal\WObj:=Workobject_1;
        MoveJ Target_690,v40,z10,EfectoRFinal\WObj:=Workobject_1;
        MoveJ Target_700,v40,z10,EfectoRFinal\WObj:=Workobject_1;
        MoveJ Target_710,v40,z10,EfectoRFinal\WObj:=Workobject_1;
        MoveJ Target_720,v40,z10,EfectoRFinal\WObj:=Workobject_1;
        MoveJ Target_730,v40,z10,EfectoRFinal\WObj:=Workobject_1;
        MoveJ Target_740,v40,z10,EfectoRFinal\WObj:=Workobject_1;
        MoveJ Target_750,v40,z10,EfectoRFinal\WObj:=Workobject_1;
        MoveJ Target_760,v40,z10,EfectoRFinal\WObj:=Workobject_1;
        MoveJ Target_770,v40,z10,EfectoRFinal\WObj:=Workobject_1;
        MoveJ Target_780,v40,z10,EfectoRFinal\WObj:=Workobject_1;
        MoveJ Target_790,v40,z10,EfectoRFinal\WObj:=Workobject_1;
        MoveJ Target_800,v40,z10,EfectoRFinal\WObj:=Workobject_1;
        MoveJ Target_810,v40,z10,EfectoRFinal\WObj:=Workobject_1;
        MoveJ Target_820,v40,z10,EfectoRFinal\WObj:=Workobject_1;
        MoveJ Target_830,v40,z10,EfectoRFinal\WObj:=Workobject_1;
        MoveJ Target_840,v40,z10,EfectoRFinal\WObj:=Workobject_1;
        MoveJ Target_850,v40,z10,EfectoRFinal\WObj:=Workobject_1;
        MoveJ Target_860,v40,z10,EfectoRFinal\WObj:=Workobject_1;
        MoveJ Target_870,v40,z10,EfectoRFinal\WObj:=Workobject_1;
        MoveJ Target_880,v40,z10,EfectoRFinal\WObj:=Workobject_1;
        MoveJ Target_890,v40,z10,EfectoRFinal\WObj:=Workobject_1;
        MoveJ Target_900,v40,z10,EfectoRFinal\WObj:=Workobject_1;
        MoveJ Target_910,v40,z10,EfectoRFinal\WObj:=Workobject_1;
        MoveJ Target_920,v40,z10,EfectoRFinal\WObj:=Workobject_1;
        MoveJ Target_930,v40,z10,EfectoRFinal\WObj:=Workobject_1;
        MoveJ Target_940,v40,z10,EfectoRFinal\WObj:=Workobject_1;
        MoveJ Target_950,v40,z10,EfectoRFinal\WObj:=Workobject_1;
        MoveJ Target_960,v40,z10,EfectoRFinal\WObj:=Workobject_1;
        MoveJ Target_970,v40,z10,EfectoRFinal\WObj:=Workobject_1;
        MoveJ Target_980,v40,z10,EfectoRFinal\WObj:=Workobject_1;
        MoveJ Target_990,v40,z10,EfectoRFinal\WObj:=Workobject_1;
        MoveJ Target_1000,v40,z10,EfectoRFinal\WObj:=Workobject_1;
        MoveJ Target_1010,v40,z10,EfectoRFinal\WObj:=Workobject_1;
        MoveJ Target_1020,v40,z10,EfectoRFinal\WObj:=Workobject_1;
        MoveJ Target_1030,v40,z10,EfectoRFinal\WObj:=Workobject_1;
        MoveJ Target_1040,v40,z10,EfectoRFinal\WObj:=Workobject_1;
        MoveJ Target_1050,v40,z10,EfectoRFinal\WObj:=Workobject_1;
        MoveJ Target_1060,v40,z10,EfectoRFinal\WObj:=Workobject_1;
        MoveJ Target_1070,v40,z10,EfectoRFinal\WObj:=Workobject_1;
        MoveJ Target_1080,v40,z10,EfectoRFinal\WObj:=Workobject_1;
        MoveJ Target_1090,v40,z10,EfectoRFinal\WObj:=Workobject_1;
        MoveJ Target_1100,v40,z10,EfectoRFinal\WObj:=Workobject_1;
        MoveJ Target_1110,v40,z10,EfectoRFinal\WObj:=Workobject_1;
        MoveJ Target_1120,v40,z10,EfectoRFinal\WObj:=Workobject_1;
        MoveJ Target_1130,v40,z10,EfectoRFinal\WObj:=Workobject_1;
        MoveJ Target_1140,v40,z10,EfectoRFinal\WObj:=Workobject_1;
        MoveJ Target_1150,v40,z10,EfectoRFinal\WObj:=Workobject_1;
        MoveJ Target_1160,v40,z10,EfectoRFinal\WObj:=Workobject_1;
        MoveJ Target_1170,v40,z10,EfectoRFinal\WObj:=Workobject_1;
        MoveJ Target_1180,v40,z10,EfectoRFinal\WObj:=Workobject_1;
        MoveJ Target_1190,v40,z10,EfectoRFinal\WObj:=Workobject_1;
        MoveJ Target_1200,v40,z10,EfectoRFinal\WObj:=Workobject_1;
        MoveJ Target_1210,v40,z10,EfectoRFinal\WObj:=Workobject_1;
        MoveJ Target_1220,v40,z10,EfectoRFinal\WObj:=Workobject_1;
        MoveJ Target_1230,v40,z10,EfectoRFinal\WObj:=Workobject_1;
        MoveJ Target_1240,v40,z10,EfectoRFinal\WObj:=Workobject_1;
        MoveJ Target_1250,v40,z10,EfectoRFinal\WObj:=Workobject_1;
        MoveJ Target_1260,v40,z10,EfectoRFinal\WObj:=Workobject_1;
        MoveJ Target_1270,v40,z10,EfectoRFinal\WObj:=Workobject_1;
        MoveJ Target_1280,v40,z10,EfectoRFinal\WObj:=Workobject_1;
        MoveJ Target_1290,v40,z10,EfectoRFinal\WObj:=Workobject_1;
        MoveJ Target_1300,v40,z10,EfectoRFinal\WObj:=Workobject_1;
        MoveJ Target_1310,v40,z10,EfectoRFinal\WObj:=Workobject_1;
        MoveJ Target_1320,v40,z10,EfectoRFinal\WObj:=Workobject_1;
        MoveJ Target_1330,v40,z10,EfectoRFinal\WObj:=Workobject_1;
        MoveJ Target_1340,v40,z10,EfectoRFinal\WObj:=Workobject_1;
        MoveJ Target_1350,v40,z10,EfectoRFinal\WObj:=Workobject_1;
        MoveJ Target_1360,v40,z10,EfectoRFinal\WObj:=Workobject_1;
        MoveJ Target_1370,v40,z10,EfectoRFinal\WObj:=Workobject_1;
        MoveJ Target_1380,v40,z10,EfectoRFinal\WObj:=Workobject_1;
        MoveJ Target_1390,v40,z10,EfectoRFinal\WObj:=Workobject_1;
        MoveJ Target_1400,v40,z10,EfectoRFinal\WObj:=Workobject_1;
        MoveJ Target_1410,v40,z10,EfectoRFinal\WObj:=Workobject_1;
        MoveJ Target_1420,v40,z10,EfectoRFinal\WObj:=Workobject_1;
        MoveJ Target_1430,v40,z10,EfectoRFinal\WObj:=Workobject_1;
        MoveJ Target_1440,v40,z10,EfectoRFinal\WObj:=Workobject_1;
        MoveJ Target_1450,v40,z10,EfectoRFinal\WObj:=Workobject_1;
        MoveJ Target_1460,v40,z10,EfectoRFinal\WObj:=Workobject_1;
        MoveJ Target_1470,v40,z10,EfectoRFinal\WObj:=Workobject_1;
        MoveJ Target_1480,v40,z10,EfectoRFinal\WObj:=Workobject_1;
        MoveJ Target_1490,v40,z10,EfectoRFinal\WObj:=Workobject_1;
        MoveJ Target_1500,v40,z10,EfectoRFinal\WObj:=Workobject_1;
        MoveJ Target_1510,v40,z10,EfectoRFinal\WObj:=Workobject_1;
        MoveJ Target_1520,v40,z10,EfectoRFinal\WObj:=Workobject_1;
        MoveJ Target_1530,v40,z10,EfectoRFinal\WObj:=Workobject_1;
        MoveJ Target_1540,v40,z10,EfectoRFinal\WObj:=Workobject_1;
        MoveJ Target_1550,v40,z10,EfectoRFinal\WObj:=Workobject_1;
        MoveJ Target_1560,v40,z10,EfectoRFinal\WObj:=Workobject_1;
        MoveJ Target_1570,v40,z10,EfectoRFinal\WObj:=Workobject_1;
        MoveJ Target_1580,v40,z10,EfectoRFinal\WObj:=Workobject_1;
        MoveJ Target_1590,v40,z10,EfectoRFinal\WObj:=Workobject_1;
        MoveJ Target_1600,v40,z10,EfectoRFinal\WObj:=Workobject_1;
        MoveJ Target_1610,v40,z10,EfectoRFinal\WObj:=Workobject_1;
        MoveJ Target_1620,v40,z10,EfectoRFinal\WObj:=Workobject_1;
        MoveJ Target_1630,v40,z10,EfectoRFinal\WObj:=Workobject_1;
        MoveJ Target_1640,v40,z10,EfectoRFinal\WObj:=Workobject_1;
        MoveJ Target_1650,v40,z10,EfectoRFinal\WObj:=Workobject_1;
        MoveJ Target_1660,v40,z10,EfectoRFinal\WObj:=Workobject_1;
        MoveJ Target_1670,v40,z10,EfectoRFinal\WObj:=Workobject_1;
        MoveJ Target_1680,v40,z10,EfectoRFinal\WObj:=Workobject_1;
        MoveJ Target_1690,v40,z10,EfectoRFinal\WObj:=Workobject_1;
        MoveJ Target_1700,v40,z10,EfectoRFinal\WObj:=Workobject_1;
        MoveJ Target_1710,v40,z10,EfectoRFinal\WObj:=Workobject_1;
        MoveJ Target_1720,v40,z10,EfectoRFinal\WObj:=Workobject_1;
        MoveJ Target_1730,v40,z10,EfectoRFinal\WObj:=Workobject_1;
        MoveJ Target_1740,v40,z10,EfectoRFinal\WObj:=Workobject_1;
        MoveJ Target_1750,v40,z10,EfectoRFinal\WObj:=Workobject_1;
        MoveJ Target_1760,v40,z10,EfectoRFinal\WObj:=Workobject_1;
        MoveJ Target_1770,v40,z10,EfectoRFinal\WObj:=Workobject_1;
        MoveJ Target_1780,v40,z10,EfectoRFinal\WObj:=Workobject_1;
        MoveJ Target_1790,v40,z10,EfectoRFinal\WObj:=Workobject_1;
        MoveJ Target_1800,v40,z10,EfectoRFinal\WObj:=Workobject_1;
        MoveJ Target_1810,v40,z10,EfectoRFinal\WObj:=Workobject_1;
        MoveJ Target_1820,v40,z10,EfectoRFinal\WObj:=Workobject_1;
        MoveJ Target_1830,v40,z10,EfectoRFinal\WObj:=Workobject_1;
        MoveJ Target_1840,v40,z10,EfectoRFinal\WObj:=Workobject_1;
        MoveJ Target_1850,v40,z10,EfectoRFinal\WObj:=Workobject_1;
        MoveJ Target_1860,v40,z10,EfectoRFinal\WObj:=Workobject_1;
        MoveJ Target_1870,v40,z10,EfectoRFinal\WObj:=Workobject_1;
        MoveJ Target_1880,v40,z10,EfectoRFinal\WObj:=Workobject_1;
        MoveJ Target_1890,v40,z10,EfectoRFinal\WObj:=Workobject_1;
        MoveJ Target_1900,v40,z10,EfectoRFinal\WObj:=Workobject_1;
        MoveJ Target_1910,v40,z10,EfectoRFinal\WObj:=Workobject_1;
        MoveJ Target_1920,v40,z10,EfectoRFinal\WObj:=Workobject_1;
        MoveJ Target_1930,v40,z10,EfectoRFinal\WObj:=Workobject_1;
        MoveJ Target_1940,v40,z10,EfectoRFinal\WObj:=Workobject_1;
        MoveJ Target_1950,v40,z10,EfectoRFinal\WObj:=Workobject_1;
        MoveJ Target_1960,v40,z10,EfectoRFinal\WObj:=Workobject_1;
        MoveJ Target_1970,v40,z10,EfectoRFinal\WObj:=Workobject_1;
        MoveJ Target_1980,v40,z10,EfectoRFinal\WObj:=Workobject_1;
        MoveJ Target_1990,v40,z10,EfectoRFinal\WObj:=Workobject_1;
        MoveJ Target_2000,v40,z10,EfectoRFinal\WObj:=Workobject_1;
        MoveJ Target_2010,v40,z10,EfectoRFinal\WObj:=Workobject_1;
    ENDPROC
ENDMODULE